X:1
T:Title
%%score { ( 1 4 5 ) | ( 2 3 ) }
L:1/8
M:6/8
K:G
V:1 treble nm="Grand Piano"
V:4 treble 
V:5 treble 
V:2 bass 
V:3 bass 
V:1
 z3 z2[Q:1/4=100] D | G2 A B2 [Fc] | d2 e d2 B | B2 d BAG |[M:5/8] [DFA]-[DFA]- [DFA]3 |[M:1/8] D | %6
[M:3/4] G2 A B2 [Fc] | d2 e d2 B | d2 [EAc] [DGB]2 [CFA] |[M:5/8] [B,G]-[B,G]- [B,G]3 | %10
[M:1/8] [Bd] |[M:3/4] [Bd]4 cB | [FA][EG] [FA] [GB]2 [Ac] | [Ac]4 z2 |[M:5/8] [FA][EG][FA] B2 | %15
[M:1/8] d |[M:3/4] d2 dd B[B,DG] |[M:7/8] [G,CE]2 [CEG] [EGc]3 [Ge] | %18
[M:3/4] [Gd]2 [GB] [GB]2 [FA] |[M:5/8] G-G- G3 |] %20
V:2
 z3 z2 D, | [G,B,D]2[K:treble] [G,CD] [G,DG]2 [D,D] | [G,B,G]2 [G,CG] [G,B,G]2 [G,DG] | %3
 [G,DG]2 [G,B,G] [DG][CF][K:bass][G,B,] |[M:5/8] D,-D,- D,3 |[M:1/8] D, | %6
[M:3/4][K:treble] [G,B,D]2 [G,CD] [G,DG]2 [D,D] | [G,B,G]2 [G,CG] [G,B,G]2 [G,DG] | %8
 [G,B,G]2[K:bass] C, D,2 D, |[M:5/8] G,-G,- G,3 |[M:1/8] G, |[M:3/4] G,2 .G,2[K:treble] A[G,DG] | %12
 [D,D]2 [D,D] [G,D]2 [D,D] | [D,D]2 .D,2 G[D,D] |[M:5/8] [D,D]2 [D,D][K:treble] [G,DG]2 | %15
[M:1/8] [G,B,G] |[M:3/4] [G,B,G]2 [G,B,G][G,G]- [G,DG][K:bass]G, |[M:7/8] C,2 C, C,3 [C,C] | %18
[M:3/4] [D,B,]2 [D,D] [D,D]2 [D,C] |[M:5/8] [G,B,]-[G,B,]- [G,B,]3 |] %20
V:3
 x6 | x2[K:treble] x4 | x6 | z3 .G,3[K:bass] |[M:5/8] x5 |[M:1/8] x |[M:3/4][K:treble] x6 | x6 | %8
 x2[K:bass] x4 |[M:5/8] x5 |[M:1/8] x |[M:3/4] z2 z .G,3[K:treble] | x6 | z2 z .D,3 | %14
[M:5/8] x3[K:treble] x2 |[M:1/8] x |[M:3/4] z2 z B, z2[K:bass] |[M:7/8] x7 |[M:3/4] x6 | %19
[M:5/8] x5 |] %20
V:4
 x6 | x6 | x6 | x6 |[M:5/8] x5 |[M:1/8] x |[M:3/4] x6 | x6 | x6 |[M:5/8] x5 |[M:1/8] x | %11
[M:3/4] x6 | x6 | z2 .D2 B[FA] |[M:5/8] x5 |[M:1/8] x |[M:3/4] x6 |[M:7/8] x7 |[M:3/4] x6 | %19
[M:5/8] x5 |] %20
V:5
 x6 | x6 | x6 | x6 |[M:5/8] x5 |[M:1/8] x |[M:3/4] x6 | x6 | x6 |[M:5/8] x5 |[M:1/8] x | %11
[M:3/4] x6 | x6 | z2 z .D3 |[M:5/8] x5 |[M:1/8] x |[M:3/4] x6 |[M:7/8] x7 |[M:3/4] x6 | %19
[M:5/8] x5 |] %20

